04-tv/tv/home/img/boxless/icon-multidispositivo.svg

<svg xmlns="http://www.w3.org/2000/svg" width="48" height="48" viewBox="0 0 48 48">
    <g fill="none" fill-rule="evenodd">
        <path stroke="#FFF" stroke-linecap="round" stroke-linejoin="round" stroke-width="1.5" d="M7.843 33c-1.55.02-2.822-1.22-2.843-2.77V11.77C5.02 10.22 6.293 8.98 7.843 9h30.314c1.55-.02 2.822 1.22 2.843 2.77V23M32.705 33L29.21 33M36.625 35L39.375 35"/>
        <path stroke="#FFF" stroke-linecap="round" stroke-linejoin="round" stroke-width="1.5" d="M34.362 23h7.276c.72-.027 1.327.53 1.362 1.25v13.5c-.028.724-.638 1.29-1.362 1.263h-7.276c-.724.026-1.334-.539-1.362-1.263V24.262c.028-.724.638-1.289 1.362-1.262h0zM17 33L21 33M9 35.09V24.91c0-1.055.707-1.91 1.58-1.91h16.84c.872 0 1.58.855 1.58 1.91v10.18c0 1.055-.707 1.91-1.58 1.91H10.58C9.707 37 9 36.145 9 35.09z"/>
        <path d="M0 0H48V48H0z"/>
    </g>
</svg>

<svg xmlns="http://www.w3.org/2000/svg" width="48" height="48" viewBox="0 0 48 48"><g fill="none" fill-rule="evenodd"><path stroke="#FFF" stroke-linecap="round" stroke-linejoin="round" stroke-width="1.5" d="M7.843 33A2.807 2.807 0 015 30.23V11.77A2.807 2.807 0 017.843 9h30.314A2.807 2.807 0 0141 11.77V23m-8.295 10H29.21m7.415 2h2.75"/><path stroke="#FFF" stroke-linecap="round" stroke-linejoin="round" stroke-width="1.5" d="M34.362 23h7.276c.72-.027 1.327.53 1.362 1.25v13.5a1.315 1.315 0 01-1.362 1.263h-7.276A1.316 1.316 0 0133 37.75V24.262A1.314 1.314 0 0134.362 23h0zM17 33h4M9 35.09V24.91c0-1.055.707-1.91 1.58-1.91h16.84c.872 0 1.58.855 1.58 1.91v10.18c0 1.055-.707 1.91-1.58 1.91H10.58C9.707 37 9 36.145 9 35.09z"/><path d="M0 0h48v48H0z"/></g></svg>
